X:53221 F:http://www.vwml.org/record/HAM/5/32/21%%VWML:HAM-5-32-21-0 T:Lowlands of Holland
S:Mrs Marina Russell, Upwey coll. HED Hammond
O:England
A:Dorset
N:Transcribed from HAM-02-233.gif
F:HAM-05-32-21.abc
Z:EFDSS;PJHeadford
M:3/4
L:1/8
Q:3/4=40
K:A
A> B|A> GE2d2|c> Bc2A2|A> AD2E2|A4A> B|
A> GE2d2|c2B2 A2|A> AD2E2|A4 c> d|
e e e2dc|d d d2cd|e e G2A2|(B2d2) c B|
A A "_E"E2d2|c> Bc2A2|A> AD2E2|A4||
W:Transcribed from HAM-02-233.gif - Hammond's field notes.
W:[left of title:] 518 [right of title:] Mrs Russell of Upwey
W:[in the stave, after the tune:] cp tunes 24, 257, 387 super Words D VII p67 W:Words below from HAM-01-686.gif - Hammond's field notes.
W:
W:Says the Mother to the Daugther "What makes you to lament
W:Is ther nary one in our yown can give your heart content?"
W:"Yes! There's many a one in Galloway, but there's nary one for me
W:For I never had but one true love & he was killed at sea
W:
W:I'll buy me love a fine ship & a fine ship will I
W:Where there's 4 & 20 jolly seamen to bear her company
W:There was 3 score a-drowndA d & 2 score a slain
W:And one of them was my true love a-killed on the main.
W:
